Badges/Build-Preview.svg

<svg xmlns="http://www.w3.org/2000/svg" fill="none" viewBox="0 0 59 18">
  <rect width="59" height="18" fill="white" rx="4"/>
  <path fill="black" d="M10.0996 10.5635V13H8.9082V5.99805h2.1924c.8138 0 1.4323.1888 1.8555.5664.4264.37435.6396.92123.6396 1.64063 0 .69661-.2409 1.26465-.7227 1.7041-.4785.43622-1.123.65432-1.9335.65432h-.8399Zm0-3.59377v2.63183h.7422c.4948 0 .8691-.11556 1.123-.34668.2572-.23112.3858-.56478.3858-1.00097 0-.42969-.1221-.75033-.3662-.96192-.2409-.21484-.6039-.32226-1.0889-.32226h-.7959ZM20.1924 13h-1.3672l-1.0693-1.8604c-.1888-.3255-.3614-.5501-.5176-.6738-.1563-.1237-.3402-.1904-.5518-.2002h-.6201V13h-1.1865V5.99805h2.29c.7259 0 1.2956.16276 1.709.48828.4167.32552.625.81055.625 1.45508 0 .48177-.1335.8903-.4004 1.22558-.2637.33529-.6266.58106-1.0889.73731v.01953c.1758.07487.3353.19047.4786.34667.1464.153.2815.3369.4052.5518L20.1924 13Zm-4.126-6.04492v2.34863h.9033c.3744 0 .682-.11719.9229-.35156.2409-.23763.3613-.53711.3613-.89844 0-.34831-.1074-.61849-.3223-.81055-.2148-.19205-.5289-.28808-.9423-.28808h-.9229ZM25.1533 13h-3.9502V5.99805h3.7891v1.00586h-2.5977v1.95312h2.4121v1.00098h-2.4121v2.03609h2.7588V13Zm6.8457-7.00195L29.4941 13h-1.333l-2.4658-7.00195h1.294l1.7089 5.21975c.0358.1107.0651.2213.0879.332.0228.1107.0407.2197.0537.3272h.0245c.013-.1042.0325-.2116.0586-.3223.026-.1139.0585-.2311.0976-.3516l1.7188-5.20505h1.2597ZM34.2207 13h-1.1963V5.99805h1.1963V13Zm5.7666 0h-3.9502V5.99805h3.7891v1.00586h-2.5977v1.95312h2.4121v1.00098h-2.4121v2.03609h2.7588V13Zm10.21-7.00195L48.2832 13h-1.3477l-1.3037-4.80957c-.0293-.11393-.0537-.23438-.0732-.36133-.0195-.12695-.0326-.25716-.0391-.39062H45.5c-.0098.13997-.026.27181-.0488.3955-.0196.1237-.0456.24089-.0782.35157L44.0498 13h-1.3769l-1.9483-7.00195h1.3037l1.2451 5.02925c.0261.1042.0472.2181.0635.3418.0195.1237.0326.2588.0391.4053h.0293c.0065-.1074.0211-.223.0439-.3467.0261-.1269.0602-.2636.1026-.4101l1.4111-5.01955h1.2256l1.3232 5.06835c.0228.0879.044.1904.0635.3076.0195.1172.0358.2474.0488.3906h.0196c.0065-.1074.0195-.2197.039-.3369.0228-.1204.0488-.249.0781-.3857l1.2061-5.04395h1.2305Z"/>
</svg>

<svg width="118" height="36" viewBox="0 0 59 18" fill="none" xmlns="http://www.w3.org/2000/svg">
    <rect width="59" height="18" rx="4" fill="white" />
    <path d="M10.0996 10.5635V13H8.9082V5.99805H11.1006C11.9144 5.99805 12.5329 6.18685 12.9561 6.56445C13.3825 6.9388 13.5957 7.48568 13.5957 8.20508C13.5957 8.90169 13.3548 9.46973 12.873 9.90918C12.3945 10.3454 11.75 10.5635 10.9395 10.5635H10.0996ZM10.0996 6.96973V9.60156H10.8418C11.3366 9.60156 11.7109 9.486 11.9648 9.25488C12.222 9.02376 12.3506 8.6901 12.3506 8.25391C12.3506 7.82422 12.2285 7.50358 11.9844 7.29199C11.7435 7.07715 11.3805 6.96973 10.8955 6.96973H10.0996ZM20.1924 13H18.8252L17.7559 11.1396C17.5671 10.8141 17.3945 10.5895 17.2383 10.4658C17.082 10.3421 16.8981 10.2754 16.6865 10.2656H16.0664V13H14.8799V5.99805H17.1699C17.8958 5.99805 18.4655 6.16081 18.8789 6.48633C19.2956 6.81185 19.5039 7.29688 19.5039 7.94141C19.5039 8.42318 19.3704 8.83171 19.1035 9.16699C18.8398 9.50228 18.4769 9.74805 18.0146 9.9043V9.92383C18.1904 9.9987 18.3499 10.1143 18.4932 10.2705C18.6396 10.4235 18.7747 10.6074 18.8984 10.8223L20.1924 13ZM16.0664 6.95508V9.30371H16.9697C17.3441 9.30371 17.6517 9.18652 17.8926 8.95215C18.1335 8.71452 18.2539 8.41504 18.2539 8.05371C18.2539 7.7054 18.1465 7.43522 17.9316 7.24316C17.7168 7.05111 17.4027 6.95508 16.9893 6.95508H16.0664ZM25.1533 13H21.2031V5.99805H24.9922V7.00391H22.3945V8.95703H24.8066V9.95801H22.3945V11.9941H25.1533V13ZM31.999 5.99805L29.4941 13H28.1611L25.6953 5.99805H26.9893L28.6982 11.2178C28.734 11.3285 28.7633 11.4391 28.7861 11.5498C28.8089 11.6605 28.8268 11.7695 28.8398 11.877H28.8643C28.8773 11.7728 28.8968 11.6654 28.9229 11.5547C28.9489 11.4408 28.9814 11.3236 29.0205 11.2031L30.7393 5.99805H31.999ZM34.2207 13H33.0244V5.99805H34.2207V13ZM39.9873 13H36.0371V5.99805H39.8262V7.00391H37.2285V8.95703H39.6406V9.95801H37.2285V11.9941H39.9873V13ZM50.1973 5.99805L48.2832 13H46.9355L45.6318 8.19043C45.6025 8.0765 45.5781 7.95605 45.5586 7.8291C45.5391 7.70215 45.526 7.57194 45.5195 7.43848H45.5C45.4902 7.57845 45.474 7.71029 45.4512 7.83398C45.4316 7.95768 45.4056 8.07487 45.373 8.18555L44.0498 13H42.6729L40.7246 5.99805H42.0283L43.2734 11.0273C43.2995 11.1315 43.3206 11.2454 43.3369 11.3691C43.3564 11.4928 43.3695 11.6279 43.376 11.7744H43.4053C43.4118 11.667 43.4264 11.5514 43.4492 11.4277C43.4753 11.3008 43.5094 11.1641 43.5518 11.0176L44.9629 5.99805H46.1885L47.5117 11.0664C47.5345 11.1543 47.5557 11.2568 47.5752 11.374C47.5947 11.4912 47.611 11.6214 47.624 11.7646H47.6436C47.6501 11.6572 47.6631 11.5449 47.6826 11.4277C47.7054 11.3073 47.7314 11.1787 47.7607 11.042L48.9668 5.99805H50.1973Z" fill="black" />
</svg>
